svg/fluentui-system-icons/ic_fluent_ink_stroke_arrow_up_down_24_filled.svg

<svg width="24" height="24" viewBox="0 0 24 24" fill="none" xmlns="http://www.w3.org/2000/svg">
<path d="M3.0044 2.90703C3.05578 2.35715 3.54319 1.95303 4.09306 2.0044L7.83952 2.35444C10.4952 2.61784 13.0421 2.93519 15.1355 3.29574C17.1771 3.64739 18.9331 4.06205 19.8975 4.57095C20.1465 4.70238 20.4191 4.87816 20.6304 5.11946C20.8547 5.37557 21.0683 5.78185 20.9793 6.28492C20.8983 6.7433 20.6026 7.05205 20.3669 7.23753C20.12 7.43184 19.8153 7.58926 19.4908 7.72369C18.2218 8.24947 15.8303 8.74618 12.0992 9.23422C10.4167 9.45431 9.17635 9.66922 8.29793 9.87034C8.50894 9.91627 8.73629 9.96163 8.97878 10.0062C10.195 10.2296 11.7285 10.421 13.3598 10.567C14.6065 10.6786 15.9422 10.8554 17.0829 11.0809L17.0894 11.0822L15.5858 12.5858C15.5121 12.6595 15.4454 12.7375 15.3856 12.819C14.6674 12.7126 13.9117 12.6243 13.1816 12.559C11.5149 12.4099 9.91544 12.2116 8.61747 11.9732C7.96939 11.8542 7.38051 11.7223 6.88872 11.5764C6.42271 11.4383 5.95006 11.2615 5.60361 11.0156C5.43218 10.894 5.19337 10.6877 5.05749 10.3674C4.89525 9.9849 4.9374 9.57762 5.1315 9.24328C5.29537 8.961 5.53883 8.77591 5.73216 8.65629C5.93864 8.52854 6.1795 8.42012 6.43731 8.32441C7.4428 7.95112 9.19599 7.59697 11.8399 7.25114C15.0721 6.82835 17.1097 6.41849 18.2466 6.05C17.4699 5.79348 16.2984 5.52544 14.796 5.26669C12.7682 4.91743 10.2741 4.60575 7.64496 4.34494L3.90701 3.9957C3.35714 3.94432 2.95303 3.45691 3.0044 2.90703ZM15.5858 15.4142C15.6039 15.4323 15.6223 15.4501 15.641 15.4673C15.1065 15.5468 14.5194 15.6248 13.8772 15.7015C11.2659 16.0133 9.69837 16.4081 8.84127 16.7971C8.4988 16.9526 8.32766 17.0817 8.24965 17.1573C8.28059 17.2033 8.3356 17.2728 8.43121 17.3644C8.61107 17.5367 8.87473 17.7296 9.21729 17.932C9.89898 18.3349 10.7805 18.7099 11.6342 19.0022L14.8786 20.048C15.4043 20.2174 15.693 20.7809 15.5236 21.3065C15.3542 21.8322 14.7907 22.1209 14.2651 21.9515L11.0038 20.9003L10.9955 20.8974C10.0627 20.5785 9.04071 20.1508 8.19981 19.6538C7.77999 19.4057 7.37681 19.1238 7.0479 18.8088C6.72934 18.5037 6.40816 18.099 6.277 17.5947C6.1304 17.0311 6.25379 16.4667 6.61684 15.9911C6.94607 15.5597 7.44299 15.2354 8.01472 14.976C9.16219 14.4552 10.9817 14.033 13.6401 13.7157C14.1551 13.6542 14.6259 13.5926 15.0554 13.5314C14.8984 14.1856 15.0752 14.9036 15.5858 15.4142ZM20.2071 10.7929C19.8166 10.4024 19.1834 10.4024 18.7929 10.7929L16.2929 13.2929C15.9024 13.6834 15.9024 14.3166 16.2929 14.7071C16.6834 15.0976 17.3166 15.0976 17.7071 14.7071L18.5 13.9142V19.5858L17.7071 18.7929C17.3166 18.4024 16.6834 18.4024 16.2929 18.7929C15.9024 19.1834 15.9024 19.8166 16.2929 20.2071L18.7929 22.7071C19.1834 23.0976 19.8166 23.0976 20.2071 22.7071L22.7071 20.2071C23.0976 19.8166 23.0976 19.1834 22.7071 18.7929C22.3166 18.4024 21.6834 18.4024 21.2929 18.7929L20.5 19.5858V13.9142L21.2929 14.7071C21.6834 15.0976 22.3166 15.0976 22.7071 14.7071C23.0976 14.3166 23.0976 13.6834 22.7071 13.2929L20.2071 10.7929Z" fill="#212121"/>
</svg>

<svg xmlns="http://www.w3.org/2000/svg" width="24" height="24"><path d="M3.004 2.907a1 1 0 0 1 1.09-.903l3.746.35c2.655.264 5.202.581 7.296.942 2.041.351 3.797.766 4.762 1.275.248.131.521.307.732.548.225.257.438.663.35 1.166-.082.458-.377.767-.613.953a3.731 3.731 0 0 1-.876.486c-1.27.525-3.66 1.022-7.392 1.51-1.682.22-2.923.435-3.801.636.21.046.438.092.68.136 1.217.224 2.75.415 4.382.561 1.247.112 2.582.288 3.723.514l.006.001-1.503 1.504c-.074.073-.14.152-.2.233a38.901 38.901 0 0 0-2.204-.26c-1.667-.15-3.267-.347-4.565-.586a17.086 17.086 0 0 1-1.728-.397c-.466-.138-.939-.315-1.285-.56a1.553 1.553 0 0 1-.547-.649c-.162-.382-.12-.79.074-1.124.164-.282.408-.467.601-.587.207-.127.447-.236.705-.332 1.006-.373 2.759-.727 5.403-1.073 3.232-.423 5.27-.833 6.407-1.201-.777-.257-1.949-.525-3.451-.783-2.028-.35-4.522-.661-7.151-.922l-3.738-.35a1 1 0 0 1-.903-1.088Zm12.582 12.507.055.053a62.13 62.13 0 0 1-1.764.234c-2.611.312-4.179.707-5.036 1.096-.342.156-.513.285-.591.36.03.046.086.116.181.207.18.173.444.366.786.568.682.403 1.563.778 2.417 1.07l3.245 1.046a1 1 0 1 1-.614 1.904L11.004 20.9l-.008-.003c-.933-.319-1.955-.746-2.796-1.243a6.334 6.334 0 0 1-1.152-.845c-.319-.305-.64-.71-.771-1.214-.147-.564-.023-1.128.34-1.604.33-.431.826-.756 1.398-1.015 1.147-.52 2.967-.943 5.625-1.26.515-.062.986-.123 1.415-.185a2 2 0 0 0 .53 1.883Zm4.621-4.621a1 1 0 0 0-1.414 0l-2.5 2.5a1 1 0 0 0 1.414 1.414l.793-.793v5.672l-.793-.793a1 1 0 0 0-1.414 1.414l2.5 2.5a1 1 0 0 0 1.414 0l2.5-2.5a1 1 0 0 0-1.414-1.414l-.793.793v-5.672l.793.793a1 1 0 0 0 1.414-1.414l-2.5-2.5Z"/></svg>
